app/img/benefits-3.svg

<svg width="90" height="90" viewBox="0 0 90 90" fill="none" xmlns="http://www.w3.org/2000/svg">
<g clip-path="url(#clip0)">
<path d="M70.0785 73.3089V86.1175C70.0785 88.2619 68.3409 89.9993 66.1985 89.9993H56.765C55.1844 89.9993 53.7609 89.0413 53.1687 87.5749L52.3232 85.4895L47.3888 73.3087H70.0785V73.3089Z" fill="#FFBEAE"/>
<path d="M42.6113 73.3088L37.6769 85.4894L36.8314 87.5749C36.2392 89.0413 34.8156 89.9993 33.2351 89.9993H23.8016C21.6592 89.9993 19.9216 88.2617 19.9216 86.1175V73.3088H42.6113Z" fill="#FFBEAE"/>
<path d="M29.2062 90.0009H23.801C21.6585 90.0009 19.9209 88.2633 19.9209 86.1191V73.3104H25.3244V86.1191C25.3244 88.2633 27.062 90.0009 29.2062 90.0009Z" fill="#E99E8C"/>
<path d="M19.9219 73.3097H42.6117L37.6774 85.4903C35.7793 85.4493 33.8794 85.3904 31.9796 85.3154C27.493 85.1387 23.3454 83.6384 19.9221 81.1928V73.3097H19.9219Z" fill="#E99E8C"/>
<path d="M70.0786 73.3089V81.192C66.6552 83.6378 62.5077 85.1381 58.021 85.3146C56.1212 85.3895 54.2211 85.4483 52.3232 85.4895L47.3889 73.3087H70.0786V73.3089Z" fill="#E99E8C"/>
<path d="M61.1784 89.9993H56.7651C55.1844 89.9993 53.761 89.0413 53.1688 87.5749L52.3232 85.4895L47.3889 73.3087H51.8022L56.7366 85.4895L57.5821 87.5749C58.1743 89.0413 59.598 89.9993 61.1784 89.9993Z" fill="#E99E8C"/>
<path d="M79.573 52.8787C79.5607 55.6974 79.4976 58.5179 79.3876 61.3364C78.9289 72.9246 69.6092 82.2118 58.021 82.6664C49.3411 83.0088 40.6591 83.0088 31.9792 82.6664C20.391 82.212 11.0712 72.9246 10.6126 61.3364C10.5026 58.5179 10.4393 55.6972 10.4271 52.8787C10.3477 35.7715 23.6825 21.7051 40.5654 20.6882V26.7759C40.5654 28.1741 41.6985 29.3091 43.0966 29.3091H46.9037C48.3017 29.3091 49.4349 28.1739 49.4349 26.7759V20.6882C66.3177 21.7053 79.6525 35.7717 79.573 52.8787Z" fill="#FFBEAE"/>
<path d="M37.2066 21.0695C29.8025 26.187 24.5994 38.5618 24.638 52.9523C24.6442 55.9605 24.685 58.9665 24.7542 61.9746C24.9703 71.2455 28.3187 79.1369 33.053 82.7073C32.6943 82.695 32.3376 82.6808 31.979 82.6665C20.3929 82.2122 11.0709 72.9248 10.6124 61.3366C10.5024 58.5181 10.4391 55.6973 10.427 52.8788C10.3537 36.9232 21.948 23.6128 37.2066 21.0695Z" fill="#E99E8C"/>
<path d="M15.2919 55.4244C15.2919 55.4244 10.8631 48.6941 10.2327 37.5805C10.0627 34.5841 12.6531 32.1777 15.628 32.5732C19.9756 33.151 26.4577 34.8095 33.2112 39.3888C33.2112 39.3886 19.9214 42.6458 15.2919 55.4244Z" fill="#E99E8C"/>
<path d="M74.7081 55.4244C74.7081 55.4244 79.1369 48.6941 79.7672 37.5805C79.9372 34.5841 77.3469 32.1777 74.372 32.5732C70.0244 33.151 63.5422 34.8095 56.7887 39.3888C56.7887 39.3886 71.3162 42.8831 74.7081 55.4244Z" fill="#FFBEAE"/>
<path d="M72.5873 46.3018C72.5873 46.3018 74.0018 44.1522 74.2031 40.6026C74.2574 39.6457 73.43 38.877 72.4799 39.0034C71.0912 39.188 69.021 39.7176 66.8639 41.1803" fill="#FFDDCE"/>
<path d="M17.4127 46.3018C17.4127 46.3018 15.9982 44.1522 15.7969 40.6026C15.7426 39.6457 16.57 38.877 17.5201 39.0034C18.9088 39.188 20.9789 39.7176 23.1361 41.1803" fill="#FFDDCE"/>
<path d="M49.5903 54.0011C46.5301 53.9007 43.47 53.9007 40.4096 54.0011C35.933 54.1478 32.3718 57.7768 32.26 62.2543C32.2317 63.3841 32.2317 64.514 32.26 65.6438C32.3718 70.1212 35.9332 73.7502 40.4096 73.897C43.4698 73.9974 46.53 73.9974 49.5903 73.897C54.0669 73.7502 57.6281 70.1212 57.7399 65.6438C57.7682 64.514 57.7682 63.3841 57.7399 62.2543C57.6281 57.7768 54.0668 54.1478 49.5903 54.0011Z" fill="#FFDDCE"/>
<path d="M41.6385 66.8459C40.8995 66.8459 40.3006 66.2469 40.3006 65.508V62.6639C40.3006 61.9249 40.8995 61.326 41.6385 61.326C42.3775 61.326 42.9764 61.9251 42.9764 62.6639V65.508C42.9765 66.247 42.3775 66.8459 41.6385 66.8459Z" fill="#407093"/>
<path d="M48.3614 66.8459C47.6224 66.8459 47.0234 66.2469 47.0234 65.508V62.6639C47.0234 61.9249 47.6222 61.326 48.3614 61.326C49.1006 61.326 49.6995 61.9251 49.6995 62.6639V65.508C49.6993 66.247 49.1004 66.8459 48.3614 66.8459Z" fill="#407093"/>
<path d="M26.4665 54.4321C25.214 54.4321 24.1952 56.1235 24.1952 58.2026C24.1952 60.2818 25.214 61.9733 26.4665 61.9733C27.7189 61.9733 28.7379 60.2818 28.7379 58.2026C28.7379 56.1235 27.7189 54.4321 26.4665 54.4321Z" fill="#365E7D"/>
<path d="M63.5335 54.4321C62.281 54.4321 61.262 56.1235 61.262 58.2026C61.262 60.2818 62.281 61.9733 63.5335 61.9733C64.7859 61.9733 65.8047 60.2818 65.8047 58.2026C65.8047 56.1235 64.7859 54.4321 63.5335 54.4321Z" fill="#365E7D"/>
<path d="M29.9689 27.7882C37.2729 27.7882 43.194 21.8671 43.194 14.5631C43.194 7.25908 37.2729 1.33801 29.9689 1.33801C22.6649 1.33801 16.7438 7.25908 16.7438 14.5631C16.7438 21.8671 22.6649 27.7882 29.9689 27.7882Z" fill="#F3D55B"/>
<path d="M29.9691 29.1262C21.9389 29.1262 15.406 22.5932 15.406 14.5631C15.406 6.53309 21.9389 0 29.9691 0C37.9992 0 44.5321 6.53309 44.5321 14.5631C44.5321 22.5932 37.999 29.1262 29.9691 29.1262ZM29.9691 2.67592C23.4146 2.67592 18.0819 8.00842 18.0819 14.5631C18.0819 21.1178 23.4146 26.4503 29.9691 26.4503C36.5236 26.4503 41.8561 21.1178 41.8561 14.5631C41.8561 8.00842 36.5236 2.67592 29.9691 2.67592Z" fill="#FDBF00"/>
<path d="M29.6168 23.1698C27.6737 23.1698 26.4821 23.022 24.5262 21.968C23.8756 21.6175 23.6325 20.8059 23.983 20.1555C24.3335 19.5049 25.1449 19.2617 25.7955 19.6123C27.3262 20.4371 28.0402 20.5029 29.849 20.4932C31.4158 20.4846 33.2001 19.6222 33.4213 18.0407C33.5663 17.0036 32.8415 16.1735 31.433 15.7634C28.7191 14.9731 27.1582 14.3577 26.0458 13.6391C24.7748 12.8182 24.1446 11.3513 24.4014 9.81114C24.7025 8.00569 26.142 6.53018 28.0689 6.05205C31.748 5.1394 34.2098 6.96576 34.3128 7.04399C34.9012 7.491 35.0158 8.33035 34.5689 8.91869C34.1246 9.50352 33.2922 9.62041 32.7046 9.18272C32.6176 9.12049 31.0883 8.05983 28.713 8.64922C27.6321 8.91729 27.1406 9.65258 27.0408 10.2509C26.9931 10.5359 26.9894 11.0629 27.4976 11.3912C28.5883 12.0958 30.4771 12.698 32.1809 13.194C34.8774 13.9791 36.4046 16.0268 36.0713 18.4111C35.743 20.7604 33.5051 23.1491 29.8636 23.1691C29.7799 23.1696 29.6975 23.1698 29.6168 23.1698Z" fill="#E49542"/>
<path d="M29.8564 25.3076C29.1175 25.3076 28.5186 24.7085 28.5186 23.9697V21.8312C28.5186 21.0922 29.1175 20.4933 29.8564 20.4933C30.5954 20.4933 31.1943 21.0923 31.1943 21.8312V23.9697C31.1945 24.7085 30.5956 25.3076 29.8564 25.3076Z" fill="#E49542"/>
<path d="M29.8564 8.47974C29.1175 8.47974 28.5186 7.88068 28.5186 7.14187V5.1566C28.5186 4.41761 29.1175 3.81873 29.8564 3.81873C30.5954 3.81873 31.1943 4.41779 31.1943 5.1566V7.1417C31.1945 7.88068 30.5956 8.47974 29.8564 8.47974Z" fill="#E49542"/>
</g>
<defs>
<clipPath id="clip0">
<rect width="90" height="90" fill="white"/>
</clipPath>
</defs>
</svg>

<svg width="90" height="90" fill="none" xmlns="http://www.w3.org/2000/svg"><g clip-path="url(#clip0)"><path d="M70.079 73.309v12.809a3.88 3.88 0 01-3.88 3.881h-9.434a3.877 3.877 0 01-3.596-2.424l-.846-2.085-4.934-12.181h22.69zM42.611 73.309l-4.934 12.18-.846 2.086a3.877 3.877 0 01-3.596 2.424h-9.433a3.881 3.881 0 01-3.88-3.881v-12.81h22.69z" fill="#FFBEAE"/><path d="M29.206 90h-5.405a3.881 3.881 0 01-3.88-3.88V73.31h5.403v12.81A3.881 3.881 0 0029.206 90z" fill="#E99E8C"/><path d="M19.922 73.31h22.69l-4.935 12.18a319.23 319.23 0 01-5.697-.175 22.192 22.192 0 01-12.058-4.122V73.31zM70.079 73.309v7.883a22.189 22.189 0 01-12.058 4.123c-1.9.075-3.8.133-5.698.175L47.39 73.309h22.69z" fill="#E99E8C"/><path d="M61.178 90h-4.413a3.877 3.877 0 01-3.596-2.425l-.846-2.085-4.934-12.181h4.413l4.935 12.18.845 2.086a3.878 3.878 0 003.596 2.424z" fill="#E99E8C"/><path d="M79.573 52.879c-.012 2.818-.075 5.639-.185 8.457-.46 11.589-9.779 20.876-21.367 21.33-8.68.343-17.362.343-26.042 0-11.588-.454-20.908-9.741-21.366-21.33a244 244 0 01-.186-8.457c-.08-17.107 13.256-31.174 30.138-32.19v6.087a2.533 2.533 0 002.532 2.533h3.807a2.533 2.533 0 002.53-2.533v-6.088c16.884 1.017 30.219 15.084 30.139 32.19z" fill="#FFBEAE"/><path d="M37.207 21.07c-7.405 5.117-12.608 17.492-12.569 31.882.006 3.009.047 6.015.116 9.023.216 9.27 3.565 17.162 8.299 20.732-.359-.012-.715-.026-1.074-.04-11.586-.455-20.908-9.742-21.367-21.33-.11-2.819-.173-5.64-.185-8.458-.073-15.956 11.521-29.266 26.78-31.81z" fill="#E99E8C"/><path d="M15.292 55.424s-4.429-6.73-5.06-17.843a4.772 4.772 0 015.396-5.008c4.348.578 10.83 2.236 17.583 6.816 0 0-13.29 3.257-17.92 16.035z" fill="#E99E8C"/><path d="M74.708 55.424s4.429-6.73 5.06-17.843a4.772 4.772 0 00-5.396-5.008c-4.348.578-10.83 2.236-17.583 6.816 0 0 14.527 3.494 17.92 16.035z" fill="#FFBEAE"/><path d="M72.587 46.302s1.415-2.15 1.616-5.7a1.524 1.524 0 00-1.723-1.599c-1.389.185-3.459.715-5.616 2.177M17.413 46.302s-1.415-2.15-1.616-5.7a1.524 1.524 0 011.723-1.599c1.389.185 3.459.715 5.616 2.177M49.59 54.001c-3.06-.1-6.12-.1-9.18 0-4.477.147-8.038 3.776-8.15 8.253a67.67 67.67 0 000 3.39c.112 4.477 3.673 8.106 8.15 8.253 3.06.1 6.12.1 9.18 0 4.477-.147 8.038-3.776 8.15-8.253a67.67 67.67 0 000-3.39c-.112-4.477-3.673-8.106-8.15-8.253z" fill="#FFDDCE"/><path d="M41.639 66.846a1.338 1.338 0 01-1.338-1.338v-2.844a1.338 1.338 0 112.675 0v2.844c0 .739-.599 1.338-1.337 1.338zM48.361 66.846a1.338 1.338 0 01-1.338-1.338v-2.844a1.338 1.338 0 112.676 0v2.844c0 .739-.599 1.338-1.338 1.338z" fill="#407093"/><path d="M26.466 54.432c-1.252 0-2.27 1.691-2.27 3.77 0 2.08 1.018 3.771 2.27 3.771 1.253 0 2.272-1.691 2.272-3.77 0-2.08-1.02-3.77-2.271-3.77zM63.533 54.432c-1.252 0-2.271 1.691-2.271 3.77 0 2.08 1.019 3.771 2.271 3.771 1.253 0 2.272-1.691 2.272-3.77 0-2.08-1.02-3.77-2.272-3.77z" fill="#365E7D"/><path d="M29.969 27.788c7.304 0 13.225-5.92 13.225-13.225 0-7.304-5.921-13.225-13.225-13.225-7.304 0-13.225 5.921-13.225 13.225 0 7.304 5.92 13.225 13.225 13.225z" fill="#F3D55B"/><path d="M29.97 29.126c-8.031 0-14.564-6.533-14.564-14.563C15.406 6.533 21.939 0 29.969 0 38 0 44.532 6.533 44.532 14.563c0 8.03-6.533 14.563-14.563 14.563zm0-26.45c-6.555 0-11.888 5.332-11.888 11.887 0 6.555 5.333 11.887 11.887 11.887 6.555 0 11.887-5.332 11.887-11.887 0-6.555-5.332-11.887-11.887-11.887z" fill="#FDBF00"/><path d="M29.617 23.17c-1.943 0-3.135-.148-5.09-1.202a1.338 1.338 0 111.268-2.356c1.531.825 2.245.89 4.054.881 1.567-.008 3.351-.87 3.572-2.452.145-1.037-.58-1.867-1.988-2.278-2.714-.79-4.275-1.405-5.387-2.124-1.271-.82-1.901-2.288-1.645-3.828.302-1.805 1.741-3.28 3.668-3.759 3.679-.913 6.14.914 6.244.992a1.338 1.338 0 01-1.608 2.139c-.087-.063-1.617-1.123-3.992-.534-1.08.268-1.572 1.004-1.672 1.602-.048.285-.052.812.457 1.14 1.09.705 2.98 1.307 4.683 1.803 2.696.785 4.224 2.833 3.89 5.217-.328 2.35-2.566 4.738-6.207 4.758h-.247z" fill="#E49542"/><path d="M29.856 25.308c-.739 0-1.337-.6-1.337-1.338V21.83a1.338 1.338 0 112.675 0v2.139c0 .739-.598 1.338-1.338 1.338zM29.856 8.48c-.739 0-1.337-.6-1.337-1.338V5.157a1.338 1.338 0 112.675 0v1.985c0 .739-.598 1.338-1.338 1.338z" fill="#E49542"/></g><defs><clipPath id="clip0"><path fill="#fff" d="M0 0h90v90H0z"/></clipPath></defs></svg>
